img/svg/orders1.svg

<svg width="12" height="11" viewBox="0 0 12 11" fill="none" xmlns="http://www.w3.org/2000/svg">
<path fill-rule="evenodd" clip-rule="evenodd" d="M11.9888 1.31072C11.9888 1.42117 11.8993 1.51072 11.7888 1.51072H0.2C0.0895398 1.51072 0 1.42117 0 1.31072V0.2C0 0.0895498 0.0895398 0 0.19999 0H11.7888C11.8993 0 11.9888 0.0895498 11.9888 0.2V1.31072Z" fill="#FE445C"/>
<path fill-rule="evenodd" clip-rule="evenodd" d="M11.9888 10.3752C11.9888 10.4856 11.8993 10.5752 11.7888 10.5752H0.2C0.0895398 10.5752 0 10.4856 0 10.3752V9.26451C0 9.15401 0.0895398 9.06451 0.19999 9.06451H11.7888C11.8993 9.06451 11.9888 9.15401 11.9888 9.26451V10.3752Z" fill="#0AA869"/>
<path fill-rule="evenodd" clip-rule="evenodd" d="M9.41978 4.33219C9.41978 4.44265 9.33018 4.53219 9.21978 4.53219H0.2C0.0895398 4.53219 0 4.44265 0 4.33219V3.22148C0 3.11102 0.0895398 3.02148 0.2 3.02148H9.21978C9.33018 3.02148 9.41978 3.11102 9.41978 3.22148V4.33219Z" fill="#FE445C"/>
<path fill-rule="evenodd" clip-rule="evenodd" d="M9.41978 7.3537C9.41978 7.4641 9.33018 7.5537 9.21978 7.5537H0.2C0.0895398 7.5537 0 7.4641 0 7.3537V6.243C0 6.1325 0.0895398 6.043 0.2 6.043H9.21978C9.33018 6.043 9.41978 6.1325 9.41978 6.243V7.3537Z" fill="#0AA869"/>
</svg>

<svg width="12" height="11" viewBox="0 0 12 11" fill="none" xmlns="http://www.w3.org/2000/svg"><path fill-rule="evenodd" clip-rule="evenodd" d="M11.989 1.31a.2.2 0 01-.2.2H.2a.2.2 0 01-.2-.2V.2C0 .09.09 0 .2 0h11.589c.11 0 .2.09.2.2v1.11z" fill="#FE445C"/><path fill-rule="evenodd" clip-rule="evenodd" d="M11.989 10.375a.2.2 0 01-.2.2H.2a.2.2 0 01-.2-.2v-1.11a.2.2 0 01.2-.2h11.589a.2.2 0 01.2.2v1.11z" fill="#0AA869"/><path fill-rule="evenodd" clip-rule="evenodd" d="M9.42 4.332a.2.2 0 01-.2.2H.2a.2.2 0 01-.2-.2v-1.11a.2.2 0 01.2-.2h9.02a.2.2 0 01.2.2v1.11z" fill="#FE445C"/><path fill-rule="evenodd" clip-rule="evenodd" d="M9.42 7.354a.2.2 0 01-.2.2H.2a.2.2 0 01-.2-.2V6.243c0-.11.09-.2.2-.2h9.02c.11 0 .2.09.2.2v1.11z" fill="#0AA869"/></svg>
